symbolic/22x22/actions/kr_unselect.svg

<svg xmlns="http://www.w3.org/2000/svg" width="22" height="22" viewBox="0 0 22 22">
 <defs>
  <style id="current-color-scheme" type="text/css">
   .ColorScheme-Text { color:#323a41; } .ColorScheme-Highlight { color:#4285f4; } .ColorScheme-NeutralText { color:#ff9800; } .ColorScheme-PositiveText { color:#4caf50; } .ColorScheme-NegativeText { color:#f44336; }
  </style>
 </defs>
 <path style="fill:currentColor" class="ColorScheme-Text" d="m2 1l0.0156 11.535 2.3223-2.279 0.4394-0.4318 0.2364 0.5798 1.8925 4.596 1.461-0.674-1.9824-4.5467-0.2461-0.5664 0.5937-0.0567 3.2676-0.3105-8-7.8457zm8.834 0l-0.834 0.834 1.666 1.666-1.666 1.666 0.834 0.834 1.666-1.666 1.666 1.666 0.834-0.834-1.666-1.666 1.666-1.666-0.834-0.834-1.666 1.666-1.666-1.666z" transform="translate(3 3)"/>
</svg>

<svg xmlns="http://www.w3.org/2000/svg" width="22" height="22"><defs><style id="current-color-scheme" type="text/css"></style></defs><path style="fill:currentColor;color:#323a41" d="m2 1 .016 11.535 2.322-2.279.44-.432.236.58L6.906 15l1.461-.674-1.982-4.547-.246-.566.593-.057L10 8.846 2 1zm8.834 0L10 1.834 11.666 3.5 10 5.166l.834.834L12.5 4.334 14.166 6 15 5.166 13.334 3.5 15 1.834 14.166 1 12.5 2.666 10.834 1z" transform="translate(3 3)"/></svg>
